icons/split-cells-vertical.svg

<svg viewBox="0 0 24 24" fill="currentColor" xmlns="http://www.w3.org/2000/svg"><path d="M20 3C20.5523 3 21 3.44772 21 4V20C21 20.5523 20.5523 21 20 21H4C3.44772 21 3 20.5523 3 20V4C3 3.44772 3.44772 3 4 3H20ZM19 5H5V10.999L9 11V13H5V19H19V13H15V11L19 10.999V5ZM12 6L15 9H13V15H15L12 18L9 15H11V9H9L12 6Z"/></svg>

<svg xmlns="http://www.w3.org/2000/svg" viewBox="0 0 24 24">
    <g>
        <path fill="none" d="M0 0H24V24H0z"/>
        <path d="M20 3c.552 0 1 .448 1 1v16c0 .552-.448 1-1 1H4c-.552 0-1-.448-1-1V4c0-.552.448-1 1-1h16zm-1 2H5v5.999L9 11v2H5v6h14v-6h-4v-2l4-.001V5zm-7 1l3 3h-2v6h2l-3 3-3-3h2V9H9l3-3z"/>
    </g>
</svg>
